X:1
T:Title
%%score [ ( 1 2 ) ( 3 4 ) ] { ( 5 6 ) | 7 }
L:1/8
Q:1/4=120
M:4/4
K:C
V:1 treble nm="Midi_74"
V:2 treble 
V:3 bass nm="Midi_74"
V:4 bass 
V:5 treble nm="Org."
V:6 treble 
V:7 bass 
V:1
 c8 | c4 G4 | c8 || d8 | e4 c4 | g4 (f2 e2) |{e} d8 || d8 | d4 B4 | e8 || c8 | f4 e4 | %12
 (d2 c2)"^John Camidge\n(1790-1859)" B4 | c8 |] %14
V:2
 G8 | G4 G4 | (E6 ^F2) || G8 | G4 E4 | G4 G4 | G8 || G8 | G4 G4 | G8 || A8 | A4 G4 | %12
 (F2 E2) (D2 F2) | E8 |] %14
V:3
 E8 | E4 D4 | C8 || B,8 | C4 C4 | C4 (D2 C2) |{C} B,8 || B,8 | B,4 B,4 | B,8 || C8 | C4 C4 | %12
 A,4 G,4 | G,8 |] %14
V:4
 C,8 | C4 B,4 | A,8 || G,8 | C4 G,4 | E,4 C,4 | [G,,G,]8 || G,8 | G,4 F,4 | E,8 || (A,6 G,2) | %11
 F,4 C,4 | [F,,F,]4 [G,,G,]4 | C,8 |] %14
V:5
 c8 | c4 G4 | [Cc]8 || d8 | e4 c4 | g4 f2 e2 |{[ce]} d8 || d8 | d4 B4 | e6 d2 || [Ec]8 | f4 e4 | %12
 d2 c2 B4 | c8 |] %14
V:6
 [CEG]8 | [EG]4 D4 | E6 [D^F]2 || [DGB]8 | [EGc]4 [EG]4 | [Gc]4 [Gc]4 | [GB]8 || [DGB]8 | %8
 [DGB]4 [DG]4 | [EGB]8 || A6 _B2 | [FAc]4 [Gc]4 | [FA]4 [DFG]4 | [CEG]8 |] %14
V:7
 [C,,C,]8 | [C,C]4 [B,,B,]4 | [A,,A,]8 || [G,,G,]8 | [C,C]4 [G,,G,]4 | [E,,E,]4 [C,,C,]4 | %6
 [G,,,G,,]8 || [G,,G,]8 | [G,,G,]4 [F,,F,]4 | [E,,E,]8 || [A,,A,]6 [G,,G,]2 | [F,,F,]4 [C,,C,]4 | %12
 [F,,F,]4 [G,,G,]4 | [C,G,]8 |] %14

